X: 4228
M: 6/8
L: 1/8
K: A
|:\
|:\
a2e fe2 | a2e f2e | efg agf | edc B2e |\
fed cde | edc Bcd | ceA d2c | BAG A3 :|


